lib/logo_tmp/nrk-logo-nrk-jazz-with-bg.svg

<svg width="80" height="24" viewBox="0 0 80 24" fill="none" xmlns="http://www.w3.org/2000/svg">
<rect width="80" height="24" fill="#481581"/>
<path d="M6.00427 18V6.00109H9.94146V18H6.00427ZM15.2981 7.91078L17.5623 18H13.2534L10.5498 6.00109H12.9664C13.5206 5.9939 14.0583 6.18925 14.4788 6.55039C14.8999 6.89638 15.1892 7.3767 15.2981 7.91078ZM18.1538 18V6.00109H22.091V18H18.1538ZM25.0647 10.5641C24.6405 10.5682 24.223 10.4572 23.8568 10.243C23.4955 10.0341 23.1954 9.73396 22.9865 9.3726C22.7721 9.00633 22.661 8.58876 22.6652 8.16432C22.6604 7.74246 22.7715 7.32738 22.9865 6.96443C23.1976 6.60699 23.4974 6.31009 23.8568 6.10252C24.2231 5.8885 24.6405 5.77751 25.0647 5.78138C25.4865 5.77684 25.9014 5.88793 26.2645 6.10252C26.6203 6.31191 26.9169 6.60856 27.1263 6.96443C27.3411 7.32748 27.4522 7.74249 27.4476 8.16432C27.4515 8.58873 27.3405 9.00623 27.1263 9.3726C26.9191 9.73238 26.6222 10.0323 26.2645 10.243C25.9014 10.458 25.4862 10.5691 25.0642 10.5641H25.0647ZM28.0559 18V6.00109H31.9934V18H28.0559ZM36.978 12.5582C36.9891 12.5699 37.0735 12.7079 37.2314 12.9723C37.3893 13.2367 37.5949 13.5747 37.8482 13.9863C38.1017 14.3977 38.3692 14.8343 38.6506 15.296C38.932 15.7577 39.1969 16.1944 39.4451 16.6058C39.6924 17.0172 39.974 17.4819 40.29 18H35.9641C35.6936 17.5606 35.4484 17.1635 35.2287 16.8086C35.0091 16.4537 34.7756 16.0706 34.5281 15.6594C34.2801 15.2485 34.0349 14.8485 33.7925 14.4595C33.5501 14.0704 33.3418 13.7296 33.1675 13.4371C32.9925 13.1443 32.8713 12.9471 32.8039 12.8455C32.6368 12.5934 32.5379 12.3023 32.517 12.0005C32.5337 11.7109 32.6269 11.431 32.787 11.1891C32.8546 11.0764 32.9786 10.8764 33.1588 10.5891C33.339 10.3018 33.5503 9.96105 33.7925 9.56672C34.0347 9.17239 34.2799 8.7696 34.5281 8.35837C34.7763 7.94715 35.0098 7.56124 35.2287 7.20071C35.4488 6.84055 35.6939 6.44059 35.9641 6.00081H40.29L36.9439 11.4595C36.8404 11.6216 36.782 11.8083 36.7749 12.0005C36.786 12.2023 36.8565 12.3963 36.9774 12.5582H36.978Z" fill="white"/>
<path d="M46.508 15.2687C46.5111 15.4648 46.4769 15.6596 46.4071 15.8427C46.3439 16.0053 46.2463 16.1521 46.1211 16.2732C45.991 16.3953 45.836 16.4875 45.6668 16.5433C45.4714 16.6078 45.2668 16.6391 45.0612 16.6362C44.9266 16.6362 44.8004 16.6305 44.6826 16.6193C44.5649 16.608 44.4471 16.594 44.3293 16.5771C44.2116 16.5602 44.0939 16.5404 43.9761 16.5177C43.8583 16.495 43.7378 16.4698 43.6144 16.4421C43.491 16.4139 43.3676 16.3829 43.2443 16.3492L43.3788 17.8686C43.5359 17.9136 43.6873 17.9557 43.8331 17.9949C43.9789 18.0346 44.1247 18.0681 44.2705 18.0965C44.4206 18.125 44.5723 18.1447 44.7247 18.1553C44.8817 18.1666 45.0556 18.1723 45.2462 18.1725C45.6351 18.1786 46.0231 18.1302 46.3986 18.0287C46.705 17.9452 46.9932 17.805 47.2482 17.6154C47.4782 17.4413 47.6749 17.2268 47.8287 16.9823C47.9815 16.737 48.095 16.4691 48.1651 16.1885C48.2391 15.8932 48.2758 15.5898 48.2744 15.2853V6H46.508V15.2687Z" fill="#DBBFFA"/>
<path d="M58.2339 16.9232C58.1109 16.9345 57.9871 16.9158 57.8728 16.8688C57.7586 16.8218 57.6574 16.7478 57.5777 16.6531C57.4218 16.3826 57.3569 16.0688 57.3927 15.7583L57.4264 12.2806C57.4301 11.916 57.3848 11.5525 57.2918 11.2001C57.21 10.8909 57.0732 10.5991 56.888 10.3388C56.7007 10.0844 56.463 9.87175 56.1898 9.71416C55.8723 9.5334 55.5291 9.40253 55.172 9.32614C54.7354 9.23149 54.2896 9.1862 53.843 9.19108C53.4886 9.19081 53.1346 9.21328 52.7831 9.25833C52.451 9.30047 52.1222 9.36541 51.7989 9.45274C51.4991 9.53421 51.2043 9.63287 50.9157 9.7482L50.7138 11.1832C50.9942 11.0821 51.2606 10.9977 51.5129 10.9299C51.7653 10.8622 52.0092 10.806 52.2448 10.7611C52.4755 10.717 52.7086 10.6861 52.9429 10.6686C53.1725 10.6517 53.3996 10.6431 53.6243 10.6429C53.9673 10.6357 54.3097 10.6755 54.6421 10.7611C54.8846 10.822 55.1076 10.9442 55.2898 11.1159C55.4521 11.2828 55.5681 11.4895 55.6262 11.7153C55.698 11.9936 55.732 12.2804 55.7272 12.5678L55.7252 12.9913L53.7589 13.1249C53.0863 13.1438 52.4237 13.2928 51.8073 13.5636C51.3462 13.7663 50.9481 14.09 50.6549 14.5006C50.4062 14.8661 50.2742 15.2988 50.2764 15.7414C50.2733 16.1568 50.3745 16.5662 50.5708 16.9319C50.7767 17.3073 51.0864 17.615 51.4625 17.818C51.9214 18.0576 52.4343 18.1739 52.9513 18.1556C53.4357 18.1667 53.9179 18.0867 54.3729 17.9196C54.7662 17.7651 55.1261 17.5358 55.4328 17.2442C55.5492 17.1323 55.6596 17.0142 55.7636 16.8906C55.7963 17.0654 55.8579 17.2336 55.9459 17.388C56.0959 17.6464 56.3264 17.8481 56.602 17.962C56.9066 18.0849 57.2327 18.1451 57.561 18.1393C57.6619 18.1393 57.76 18.1362 57.8554 18.1309C57.949 18.1252 58.0419 18.111 58.133 18.0884C58.2227 18.0659 58.3037 18.0465 58.3769 18.0293C58.4428 18.0147 58.5075 17.9949 58.5703 17.9702L58.7554 16.8394C58.6625 16.8712 58.5667 16.8939 58.4694 16.9069C58.3913 16.9171 58.3126 16.9226 58.2339 16.9232ZM55.4328 16.1635C55.2504 16.3082 55.0529 16.4329 54.8439 16.5352C54.6357 16.6367 54.4151 16.7105 54.1879 16.7547C53.9522 16.8001 53.7128 16.8226 53.4728 16.8219C53.1987 16.8299 52.926 16.778 52.6737 16.67C52.4684 16.5807 52.2953 16.4306 52.1775 16.2397C52.0609 16.0374 52.0026 15.8065 52.0092 15.5729C51.993 15.2913 52.0699 15.0123 52.2279 14.7791C52.4111 14.5647 52.6593 14.4165 52.9345 14.3571C53.3643 14.2557 53.8054 14.2104 54.2467 14.2223H55.7199L55.7123 15.8979C55.6269 15.9942 55.5333 16.0832 55.4328 16.1635Z" fill="#DBBFFA"/>
<path d="M66.7126 10.5754L66.5107 9.37645H60.0169L59.815 10.7271H64.7005L59.6639 16.8385L59.8658 17.9865H66.7297L66.9147 16.619H61.7727L66.7126 10.5754Z" fill="#DBBFFA"/>
<path d="M70.2514 16.6193L75.1918 10.5757L74.9897 9.37676H68.4959L68.294 10.7274H73.1792L68.1426 16.8388L68.3445 17.9868H75.2084L75.3934 16.6193H70.2514Z" fill="#DBBFFA"/>
</svg>

<svg xmlns="http://www.w3.org/2000/svg" viewBox="0 0 80 24"><path fill="#481581" d="M0 0h80v24H0z"/><path fill="#fff" d="M6.004 18V6.001h3.937V18H6.004Zm9.294-10.09L17.562 18h-4.309L10.55 6.001h2.416a2.276 2.276 0 0 1 1.513.55c.42.345.71.826.82 1.36ZM18.154 18V6.001h3.937V18h-3.937Zm6.91-7.436a2.383 2.383 0 0 1-2.4-2.4 2.303 2.303 0 0 1 .323-1.2 2.411 2.411 0 0 1 3.278-.861c.355.209.652.506.861.861.215.363.326.778.322 1.2a2.4 2.4 0 0 1-1.183 2.079 2.302 2.302 0 0 1-1.2.321ZM28.057 18V6.001h3.937V18h-3.937Zm8.922-5.442c.011.012.096.15.253.414.158.265.364.603.617 1.014a315.936 315.936 0 0 1 1.597 2.62c.247.411.529.876.845 1.394h-4.326c-.27-.44-.516-.837-.735-1.191-.22-.355-.453-.738-.7-1.15-.249-.41-.494-.81-.737-1.2-.242-.389-.45-.73-.625-1.022-.175-.293-.296-.49-.363-.591a1.748 1.748 0 0 1-.287-.845c.017-.29.11-.57.27-.812.068-.113.192-.313.372-.6s.391-.628.633-1.022c.243-.395.488-.797.736-1.209l.7-1.157.736-1.2h4.326l-3.346 5.458a1.08 1.08 0 0 0-.17.542c.012.201.082.395.203.557h.001Z"/><path fill="#DBBFFA" d="M46.508 15.269c.003.196-.031.39-.1.574-.064.162-.162.31-.287.43-.13.122-.285.215-.454.27-.196.065-.4.096-.606.093-.134 0-.26-.005-.378-.017a7.607 7.607 0 0 1-.707-.101 9.058 9.058 0 0 1-.732-.169l.135 1.52c.157.045.308.087.454.126.146.04.292.073.438.101.15.029.301.049.454.06.157.01.33.016.521.017.39.006.777-.043 1.153-.144.306-.084.594-.224.85-.414a2.39 2.39 0 0 0 .58-.633c.152-.245.266-.513.336-.793.074-.296.11-.6.11-.904V6h-1.767v9.269ZM58.234 16.923a.765.765 0 0 1-.656-.27 1.458 1.458 0 0 1-.185-.895l.033-3.477a4.073 4.073 0 0 0-.134-1.08 2.659 2.659 0 0 0-.404-.862 2.285 2.285 0 0 0-.698-.625 3.564 3.564 0 0 0-1.018-.388 5.965 5.965 0 0 0-1.329-.135c-.354 0-.708.022-1.06.067-.332.042-.66.107-.984.195-.3.081-.595.18-.883.295l-.202 1.435a10.067 10.067 0 0 1 1.53-.422c.231-.044.465-.075.699-.092.23-.017.457-.026.681-.026.343-.007.686.032 1.018.118.243.061.466.183.648.355.162.167.278.373.336.6.072.278.106.564.101.852l-.002.423-1.966.134a5.216 5.216 0 0 0-1.952.439c-.46.202-.859.526-1.152.937-.249.365-.38.798-.379 1.24-.003.416.098.825.295 1.19.206.376.515.684.892.887.458.24.971.356 1.488.338.485.01.967-.07 1.422-.236a3.277 3.277 0 0 0 1.06-.676c.116-.112.227-.23.33-.353.033.174.095.343.183.497.15.258.38.46.656.574.305.123.63.183.959.177.1 0 .199-.003.294-.008.094-.006.187-.02.278-.043l.244-.059c.066-.014.13-.034.193-.059l.185-1.13a1.494 1.494 0 0 1-.286.067c-.078.01-.156.016-.235.016Zm-2.801-.76a3.24 3.24 0 0 1-.59.372 2.654 2.654 0 0 1-.655.22 3.723 3.723 0 0 1-.715.067 1.89 1.89 0 0 1-.8-.152 1.098 1.098 0 0 1-.495-.43 1.264 1.264 0 0 1-.169-.667c-.016-.282.06-.56.219-.794.183-.214.431-.363.706-.422.43-.101.871-.147 1.313-.135h1.473l-.008 1.676a2.257 2.257 0 0 1-.28.265ZM66.713 10.575l-.202-1.199h-6.494l-.202 1.351h4.886l-5.037 6.111.202 1.148h6.864l.185-1.367h-5.142l4.94-6.044ZM70.251 16.62l4.94-6.044-.201-1.2h-6.494l-.202 1.351h4.885l-5.036 6.112.201 1.148h6.864l.185-1.368h-5.142Z"/></svg>
